X:1
T: The Countess of Elgin
C:
R:Reel
Q: 232
K:D
M:4/4
L:1/8
|:f|d2 AG FG AF|EF GA Bg fe|d2 AG FG AF|DE FG Ad df|
d2 AG FG AF|EF GA Bg fe|d2 AG FG AF|DE FG Ad de|
fd df ge eg|fa fd ce eg|fd df ge eg|fe dc d3e|
fd df ge eg|fa fd ce eg|fe dc dA FA|DE FG Ad d:|
